src/assets/icons/upload.svg

<svg width="24" height="24" viewBox="0 0 24 24" fill="none" xmlns="http://www.w3.org/2000/svg">
<!-- Document -->
<path d="M19.75 19.75V7.75C19.75 6.64543 18.8546 5.75 17.75 5.75H9.21037C8.8659 5.75 8.53857 5.90029 8.31406 6.16154L6.03551 8.8129C5.85129 9.02725 5.75 9.30053 5.75 9.58317V19.75C5.75 20.8546 6.64543 21.75 7.75 21.75H17.75C18.8546 21.75 19.75 20.8546 19.75 19.75Z" stroke="#314158" stroke-width="1.5"/>
<!-- Arrow up chevron -->
<path d="M10.25 13.15L12.75 10.65L15.25 13.15" stroke="#314158" stroke-width="1.5" stroke-linecap="round" stroke-linejoin="round"/>
<!-- Arrow up line -->
<path d="M12.75 15.25V11" stroke="#314158" stroke-width="1.5" stroke-linecap="round" stroke-linejoin="round"/>
</svg>

<svg fill="none" viewBox="0 0 24 24"><path stroke="currentColor" stroke-width="1.5" d="M19.75 19.75v-12a2 2 0 0 0-2-2H9.21c-.344 0-.671.15-.896.412l-2.278 2.65a1.18 1.18 0 0 0-.286.771V19.75a2 2 0 0 0 2 2h10a2 2 0 0 0 2-2Z"/><path stroke="currentColor" stroke-linecap="round" stroke-linejoin="round" stroke-width="1.5" d="m10.25 13.15 2.5-2.5 2.5 2.5M12.75 15.25V11"/></svg>
